X:767
T:O Welcome to My Dearie O
R:Reel
C:James Stewart-Robertson
B:The Athole Collection
M:C|
L:1/8
K:G
D|G2Bd g2gf|edBg AGEA|G/G/G Bd g2 ga|bage dBBg|G2Bd g2gf|
edeg edBg|bgaf gedB|egdB BAA||B|G/G/G dB gBdg|G/G/G dB eAAB|
G/G/G dB gBdB|egdB BAAB|G/G/G dB gBdg|G/G/G dB eAAf|
gaba gedB|egdB BAAB||

